!!!CDT:
!!!PTL: Il secondo libro de madrigali a cinque voci
!!!PPP: Paris
!!!PPR: Le Roy et Ballard
!!!PDT: 1586
!!!RISM: V 1086
!!!rime: 198
!!!AGN: Madrigal
!!!SCT: Trm0198a
!!!SCA: Trm0198a
!!!voices: 5
!!!COM: Vecoli, Regolo
!!!OTL: Chi la felice pianta d'Oriente 
**kern	**text	**kern	**text	**kern	**text	**kern	**text	**kern	**text
*part5	*part5	*part4	*part4	*part3	*part3	*part2	*part2	*part1	*part1
*staff5	*staff5	*staff4	*staff4	*staff3	*staff3	*staff2	*staff2	*staff1	*staff1
*I"Basso	*	*I"Quinto	*	*I"Tenore	*	*I"Alto	*	*I"Canto	*
*clefF4	*	*clefGv2	*	*clefGv2	*	*clefG2	*	*clefG2	*
*	*	*Trd-4c-7	*	*	*	*	*	*	*
*k[]	*	*k[b-]	*	*k[]	*	*k[]	*	*k[]	*
*M2/1	*	*M2/1	*	*M2/1	*	*M2/1	*	*M2/1	*
=1	=1	=1	=1	=1	=1	=1	=1	=1	=1
0r	.	1GG	Chi	1d	Chi	1f	Chi	1a	Chi
.	.	2.D	la	2.c	la	2.e	la	2.a	la
.	.	4D	fe-	4c#X	fe-	4e	fe-	4a	fe-
=2	=2	=2	=2	=2	=2	=2	=2	=2	=2
0r	.	2D	-li-	2c#X	-li-	2e	-li-	2a	-li-
.	.	2G	-ce	2d	-ce	2f	-ce	2a	-ce
.	.	4F	pian-	2e	pian-	2g	pian-	[1cc	pian-
.	.	4E	.	.	.	.	.	.	.
.	.	4D	.	2e	-ta	[2a	-ta	.	.
.	.	4C	.	.	.	.	.	.	.
=3	=3	=3	=3	=3	=3	=3	=3	=3	=3
0r	.	2BB-y	.	2f	d'O-	2a]	.	2cc]	.
.	.	2C	-ta	2d	-ri-	2g	d'O-	2b	-ta
.	.	2D	d'O-	[1cnXi	-en-	2e	-ri-	2a	d'O-
.	.	2BB-y	-ri-	.	.	[2f	-en-	2a	-ri-
=4	=4	=4	=4	=4	=4	=4	=4	=4	=4
0r	.	1F	-en-	1c]	.	2f]	.	1g	-en-
.	.	.	.	.	.	2e	.	.	.
.	.	2BB-y	-te	1c	-te	2f	-te	2a	-te
.	.	2D	Por-	.	.	2e	Por-	2a	Por-
=5	=5	=5	=5	=5	=5	=5	=5	=5	=5
0r	.	4G	-tò	4r	.	4f	-tò	2.a	-tò
.	.	4F	nel	4A	Por-	4e	nel-	.	.
.	.	4G	l'Oc-	4F#X	-tò	4A	-l'Oc-	.	.
.	.	4E	-ci-	4G	nel-	4B	-ci-	4g	nel-
.	.	1D	-den-	4A	-l'Oc-	4c#X	-den-	4e	-l'Oc-
.	.	.	.	4D	-ci-	2d	.	4f	-ci-
.	.	.	.	2A	-den-	.	.	2e	-den-
.	.	.	.	.	.	4c#X	.	.	.
=6	=6	=6	=6	=6	=6	=6	=6	=6	=6
2r	.	2D	-te?	2D	-te?	1d	-te?	2f#X	-te?
2D	Et	2BBnX	Et	2d	Et	.	.	2a	Et
2GG	di	2C	di	2d	di	2r	.	2b	di
2AA	qual	2AA	qual	2c	qual	2a	Et	2cc	qual
=7	=7	=7	=7	=7	=7	=7	=7	=7	=7
1BB-X	ma-	2.GG	ma-	1B-X	ma-	2f	di	1dd	ma-
.	.	.	.	.	.	2g	qual	.	.
.	.	4AA	.	.	.	.	.	.	.
1FF	-no	2BB-X	.	4A	-no a-	1a	ma-	2cc	-no a-
.	.	.	.	4c	-ven-	.	.	.	.
.	.	4FF	-no a-	4.c	-tu-	.	.	2a	-ven-
.	.	4BB-y	-ven-	.	.	.	.	.	.
.	.	.	.	8d	.	.	.	.	.
=8	=8	=8	=8	=8	=8	=8	=8	=8	=8
1r	.	4.AA	-tu-	4e	-ro-	2g	-no a-	2cc	-tu-
.	.	.	.	4e	-s'è	.	.	.	.
.	.	8BB-y	.	.	.	.	.	.	.
.	.	4C	-ro-	1d	que-	2g	-ven-	2b	-ro-
.	.	4C	-s'è	.	.	.	.	.	.
1A	a-	2GG	que-	.	.	2f	-tu-	2.a	.
.	.	2D	-sto	2c	-sto,	2e	-ro-	.	.
.	.	.	.	.	.	.	.	4g	.
=9	=9	=9	=9	=9	=9	=9	=9	=9	=9
2B	-ven-	0r	.	4r	.	2d	-s'è	4f	.
.	.	.	.	4d	a-	.	.	4g	.
2A	-tu-	.	.	4e	-ven-	1c	que-	1a	.
.	.	.	.	4e	-tu-	.	.	.	.
2F	-ro-	.	.	2f	-ro-	.	.	.	.
2F	-s'è	.	.	2c	-s'è	[2f	.	2a	-s'è
=10	=10	=10	=10	=10	=10	=10	=10	=10	=10
1C	que-	1r	.	2c	que-	2f]	.	1g	que-
.	.	.	.	4c	-sto	2e	.	.	.
.	.	.	.	4c	me-	.	.	.	.
2F	-sto	2r	.	2c	-ra-	2f	-sto	2a	-sto
2F	me-	2D	me-	2d	-vi-	2f	me-	2a	me-
=11	=11	=11	=11	=11	=11	=11	=11	=11	=11
2E	-ra-	2C	-ra-	2e	-glio-	2g	-ra-	4cc	-ra-
.	.	.	.	.	.	.	.	4b	-vi-
2D	-vi-	2BB-y	-vi-	1A	-so i-	2a	-vi-	1dd	-glio-
2AA	-glio-	2AA	-glio-	.	.	2a	-glio-	.	.
2AA	-so i-	2AA	-so	[2A	-ne-	2e	-so i-	2cc	-so i-
=12	=12	=12	=12	=12	=12	=12	=12	=12	=12
1E	-ne-	4r	.	2A]	.	1e	-ne-	1b	-ne-
.	.	4E	i-	.	.	.	.	.	.
.	.	2E	-ne-	2G#X	.	.	.	.	.
2AA	-sto?	1F#X	-sto?	1A	-sto?	1e	-sto?	1a	-sto?
2A	Fe-	.	.	.	.	.	.	.	.
=13	=13	=13	=13	=13	=13	=13	=13	=13	=13
2B	-li-	1G	Fe-	2r	.	2r	.	1r	.
2A	-ce,	.	.	2D	Fe-	2f#X	Fe-	.	.
1r	.	2E-X	-li-	2GnXi	-li-	2g	-li-	1dd	Fe-
.	.	2D	-ce,	2F#X	-ce,	2a	-ce,	.	.
=14	=14	=14	=14	=14	=14	=14	=14	=14	=14
2r	.	2C	chi	2G	chi	2d	chi	2b-X	-li-
2D	Fe-	2BBnX	rac-	2A	rac-	2d	rac-	2a	-ce,
2G	-li-	2C	-co-	2B-X	-co-	1d	-co-	2g	chi
2F	-ce,	2GG	-glie	2A	-glie,	.	.	2a	rac-
=15	=15	=15	=15	=15	=15	=15	=15	=15	=15
2B-X	chi	0r	.	2r	.	1d	-glie	2f	-co-
2G	rac-	.	.	2B-X	<Fe-	.	.	2g	.
2F	-co-	.	.	2A	-li-	2r	.	1a	-glie
4E	.	.	.	2d	-ce	2f	Pe-	.	.
4D	.	.	.	.	.	.	.	.	.
=16	=16	=16	=16	=16	=16	=16	=16	=16	=16
2A	.	2r	.	2c#X	chi	2e	-pe	1r	.
2D	-glie	2BB-y	Pe-	2d	rac-	2a	nel	.	.
1r	.	2AA	-pe	1e	-co-	2g#X	lau-	2r	.
.	.	2D	nel	.	.	2a	-ro,	2cc	Pe-
=17	=17	=17	=17	=17	=17	=17	=17	=17	=17
2r	.	2C#X	lau-	2E	-glie>	2r	.	2b	-pe
2A	Pe-	2D	-ro	2cnX	Pe-	2a	<Pe-	2ee	nel
2B	-pe	1r	.	2B	-pe	2gnXi	-pe	2dd	lau-
2c	nel	.	.	2e	nel	2g	nel	[2cc	.
=18	=18	=18	=18	=18	=18	=18	=18	=18	=18
1G	lau-	2r	.	2.d	lau-	1g	lau-	2cc]	.
.	.	2.CnXi	tra	.	.	.	.	2b	.
.	.	.	.	8cL	.	.	.	.	.
.	.	.	.	8dJ	.	.	.	.	.
2C	-ro	.	.	2e	.	1g	-ra>	2cc	-ro
.	.	4D	le	.	.	.	.	.	.
[2G	tra	4E	ver-	2d	-ro	.	.	[2b	tra
.	.	4F	-di	.	.	.	.	.	.
=19	=19	=19	=19	=19	=19	=19	=19	=19	=19
4G]	.	2G	fo-	1r	.	2r	.	4b]	.
4F	le	.	.	.	.	.	.	4a	le
4E	ver-	2A	-glie,	.	.	4r	.	4cc	ver-
4E	-di	.	.	.	.	2g	tra	4b	-di
2D	fo-	4.D	tra	2r	.	.	.	2dd	fo-
.	.	.	.	.	.	4f	le	.	.
.	.	8E	le	.	.	.	.	.	.
2C	-glie!	4F	ver-	4r	.	4.e	ver-	2g	-glie,
.	.	4C	-di	[4c	tra	.	.	.	.
.	.	.	.	.	.	8f	.	.	.
=20	=20	=20	=20	=20	=20	=20	=20	=20	=20
0r	.	2C	fo-	4c]	.	4g	-di	4r	.
.	.	.	.	4B	le	4d	fo-	2g	tra
.	.	2F	-glie!	4c	ver-	4.e	.	.	.
.	.	.	.	4A	-di	.	.	4a	le
.	.	.	.	.	.	8f	.	.	.
.	.	1r	.	2e	fo-	2g	.	4b	ver-
.	.	.	.	.	.	.	.	4cc	-di
.	.	.	.	2d	-glie,	4f#X	-glie,	2dd	fo-
.	.	.	.	.	.	[4a	tra	.	.
=21	=21	=21	=21	=21	=21	=21	=21	=21	=21
0r	.	1r	.	4.e	tra	4a]	.	2b	-glie,
.	.	.	.	.	.	4g#X	le	.	.
.	.	.	.	8e	le	.	.	.	.
.	.	.	.	4c#X	ver-	4a	ver-	4.a	tra
.	.	.	.	4d	-di	4fnXi	-di	.	.
.	.	.	.	.	.	.	.	8a	le
.	.	2r	.	1A	fo-	4e	fo-	4a	ver-
.	.	.	.	.	.	2d	.	4f	-di
.	.	[2D	On-	.	.	.	.	2e	fo-
.	.	.	.	.	.	4c#X	.	.	.
=22	=22	=22	=22	=22	=22	=22	=22	=22	=22
0r	.	2D]	.	2D	-glie!	2d	-glie!	1d	-glie!
.	.	2E-X	-d'A-	1d	On-	1f	On-	.	.
.	.	1D	-mor,	.	.	.	.	2r	.
.	.	.	.	2cnX	-d'A-	2e	-d'A-	[2a	On-
=23	=23	=23	=23	=23	=23	=23	=23	=23	=23
1r	.	1r	.	2f	-mor	2d	-mor	2a]	.
.	.	.	.	4F	e	4f	e	2a	-d'A-
.	.	.	.	4A	Na-	4e	Na-	.	.
2r	.	4r	.	2G	-tu-	2g	-tu-	2b-X	-mor
.	.	2G	On-	.	.	.	.	.	.
4r	.	.	.	2D	-ra	2f	-ra,	4a	e
[4A	On-	4D	-d'A-	.	.	.	.	4f	Na-
=24	=24	=24	=24	=24	=24	=24	=24	=24	=24
4A]	.	2F	-mor	0r	.	4r	.	2e	-tu-
4E	-d'A-	.	.	.	.	2g	On-	.	.
2G	-mor	4E	e	.	.	.	.	2d	-ra,
.	.	4C	Na-	.	.	4d	-d'A-	.	.
4F	e	2D	-tu-	.	.	1f	-mor	4r	.
4D	Na-	.	.	.	.	.	.	2dd	<On-
4.F	-tu-	4D	-ra,	.	.	.	.	.	.
.	.	4F	On-	.	.	.	.	4a	-d'A-
8G	.	.	.	.	.	.	.	.	.
=25	=25	=25	=25	=25	=25	=25	=25	=25	=25
4A	.	4F	-d'A-	0r	.	4e	e	2cc	-mor
4F	-ra,	4B-y	-mor	.	.	4a	Na-	.	.
4c	e	4A	e	.	.	4g	-tu-	4cc	e
4A	Na-	4B-y	Na-	.	.	2f	.	4cc	Na-
2G	-tu-	2c	-tu-	.	.	.	.	2b-X	-tu-
.	.	.	.	.	.	4e	.	.	.
2F	-ra	[2F	-ra	.	.	2f	.	2a	-ra>
=26	=26	=26	=26	=26	=26	=26	=26	=26	=26
1A	et	2F]	.	0r	.	1e	-ra et	0r	.
.	.	2F	et	.	.	.	.	.	.
2F	Ar-	2F	Ar-	.	.	2f	Ar-	.	.
2G	-te u-	2E	-te u-	.	.	4e	.	.	.
.	.	.	.	.	.	4d	.	.	.
=27	=27	=27	=27	=27	=27	=27	=27	=27	=27
2A	-ni-	2.D	-ni-	2r	.	4f	.	1a	et
.	.	.	.	.	.	4e	-te u-	.	.
2D	-te	.	.	2F	et	2d	-ni-	.	.
.	.	4E	.	.	.	.	.	.	.
1r	.	4F	.	2F	Ar-	4a	-te,	2f	Ar-
.	.	4G	.	.	.	4A	et	.	.
.	.	4A	.	2E	-te u-	4c	Ar-	2g	-te u-
.	.	8GL	.	.	.	4B	-te u-	.	.
.	.	8AJ	.	.	.	.	.	.	.
=28	=28	=28	=28	=28	=28	=28	=28	=28	=28
1r	.	2B-y	.	2D	-ni-	2d	-ni-	2a	-ni-
.	.	2A	-te	2A	-te	2c#X	-te	2a	-te
2F	Fan-	1r	.	2r	.	4r	.	1r	.
.	.	.	.	.	.	4a	Fan-	.	.
4E	-no a-	.	.	2c	Fan-	4g	-no a-	.	.
4F	-mi-	.	.	.	.	4a	-mi-	.	.
=29	=29	=29	=29	=29	=29	=29	=29	=29	=29
4G	-ci-	2r	.	4B	-no a-	4d	-ci-	2r	.
4E	-tia e	.	.	4c	-mi-	4e	-tia e	.	.
2D	li-	4r	.	4d	-ci-	2A	li-	2f	Fan-
.	.	4G	Fan-	4d	-tia e	.	.	.	.
4AA	-te,	4F	-no a-	4e	li-	2A	-te,	4e	-no a-
4A	Fan-	4D	-mi-	8dL	.	.	.	4f	-mi-
.	.	.	.	8cJ	.	.	.	.	.
4G	-no a-	4E	-ci-	4d	.	2r	.	4g	-ci-
4A	-mi-	4F	-tia e	[4c	.	.	.	4e	-tia e
=30	=30	=30	=30	=30	=30	=30	=30	=30	=30
4F	-ci-	2G	li-	4c]	.	2f	Fan-	2d	li-
4D	-tia e	.	.	4B	.	.	.	.	.
4.C	li-	2C	-te	2c	-te,	4.e	-no a-	4e	-te,
.	.	.	.	.	.	.	.	4cc	Fan-
8D	.	.	.	.	.	8f	-mi-	.	.
2E	.	2r	.	2r	.	2g	-ci-	4b	-no a-
.	.	.	.	.	.	.	.	4cc	-mi-
4D	-te,	2G	Fan-	2F	Fan-	2a	-tia	[2dd	-ci-
4D	<Fan-	.	.	.	.	.	.	.	.
=31	=31	=31	=31	=31	=31	=31	=31	=31	=31
4GG	-no a-	4E-X	-no a-	4G	-no a-	2r	.	2dd]	.
4FF#X	-mi-	4D	-mi-	4A	-mi-	.	.	.	.
2GG	-ci-	1C	-ci-	4B-X	-ci-	1d	e	2b-X	-tia e
.	.	.	.	4G	-tia e	.	.	.	.
1D	-tia e	.	.	2A	li-	.	.	1a	li-
.	.	2BB-y	-tia e	2A	-te,	[2d	li-	.	.
=32	=32	=32	=32	=32	=32	=32	=32	=32	=32
2AA	li-	1AA	li-	2r	.	2d]	.	1a	-te,
2AA	-te,>	.	.	1A	On-	2c#X	.	.	.
1r	.	2GG	-te,	.	.	2d	-te,	1r	.
.	.	[2G	On-	2B-X	-d'A-	[2f	On-	.	.
=33	=33	=33	=33	=33	=33	=33	=33	=33	=33
0r	.	2G]	.	1A	-mor,	2f]	.	2r	.
.	.	2F	-d'A-	.	.	2e	-d'A-	1a	On-
.	.	2B-y	-mor	1r	.	2d	-mor	.	.
.	.	4BB-y	e	.	.	4f	e	2a	-d'A-
.	.	4D	Na-	.	.	4e	Na-	.	.
=34	=34	=34	=34	=34	=34	=34	=34	=34	=34
2r	.	2C	-tu-	4r	.	2g	-tu-	2b-X	-mor
.	.	.	.	2d	On-	.	.	.	.
4r	.	2GG	-ra	.	.	2f	-ra,	4a	e
2A	On-	.	.	4A	-d'A-	.	.	4f	Na-
.	.	1r	.	2c	-mor	4r	.	2e	-tu-
4E	-d'A-	.	.	.	.	2g	On-	.	.
2G	-mor	.	.	4B	e	.	.	2d	-ra,
.	.	.	.	4G	Na-	4d	-d'A-	.	.
=35	=35	=35	=35	=35	=35	=35	=35	=35	=35
4F	e	0r	.	2A	-tu-	1f	-mor	4r	.
4D	Na-	.	.	.	.	.	.	2dd	<On-
4.F	-tu-	.	.	4A	-ra,	.	.	.	.
.	.	.	.	4c	On-	.	.	4a	-d'A-
8G	.	.	.	.	.	.	.	.	.
4A	.	.	.	4c	-d'A-	4e	e	2cc	-mor
4F	-ra,	.	.	4f	-mor	4a	Na-	.	.
4c	e	.	.	4e	e	4g	-tu-	4cc	e
4A	Na-	.	.	4f	Na-	[4f	.	4cc	Na-
=36	=36	=36	=36	=36	=36	=36	=36	=36	=36
2G	-tu-	0r	.	2g	-tu-	4f]	.	2b-X	-tu-
.	.	.	.	.	.	4e	.	.	.
2F	-ra	.	.	1c	-ra	2f	-ra	2a	-ra>
1A	et	.	.	.	.	1e	et	1r	.
.	.	.	.	2c	et	.	.	.	.
=37	=37	=37	=37	=37	=37	=37	=37	=37	=37
2F	Ar-	1r	.	2c	Ar-	2f	ar-	1r	.
2G	-te u-	.	.	2B	-te u-	4e	.	.	.
.	.	.	.	.	.	4d	.	.	.
2A	-ni-	2r	.	2.A	-ni-	4f	.	1a	et
.	.	.	.	.	.	4e	-te u-	.	.
2D	-te	2BB-y	et	.	.	2d	-ni-	.	.
.	.	.	.	4B	.	.	.	.	.
=38	=38	=38	=38	=38	=38	=38	=38	=38	=38
0r	.	2BB-y	Ar-	4c	.	4a	-te,	2f	ar-
.	.	.	.	4d	.	4A	et	.	.
.	.	2AA	-te u-	4e	.	4c	ar-	2g	-te u-
.	.	.	.	8dL	.	4B	-te u-	.	.
.	.	.	.	8eJ	.	.	.	.	.
.	.	2GG	-ni-	2f	.	2d	-ni-	2a	-ni-
.	.	2D	-te	2e	-te	2c	-te	2a	-te
=39	=39	=39	=39	=39	=39	=39	=39	=39	=39
2F	Fan-	2r	.	1r	.	4r	.	1r	.
.	.	.	.	.	.	4a	Fan-	.	.
4E	-no e-	2F	Fan-	.	.	4g	-no a-	.	.
4F	-mi-	.	.	.	.	4a	-mi-	.	.
4G	-ci-	4E	-no e-	2r	.	4d	-ci-	2r	.
4E	-tia e	4F	-mi-	.	.	4e	-tia e	.	.
2D	li-	4G	-ci-	4r	.	2A	li-	2f	Fan-
.	.	4G	-tia e	4d	Fan-	.	.	.	.
=40	=40	=40	=40	=40	=40	=40	=40	=40	=40
4AA	-te,	4A	li-	4c	-no a-	2A	-te,	4e	-no a-
4A	<Fan-	8GL	.	4A	-mi-	.	.	4f	-mi-
.	.	8FJ	.	.	.	.	.	.	.
4G	-no a-	4G	.	4B	-ci-	2r	.	4g	-ci-
4A	-mi-	2F	.	4c	-tia e	.	.	4e	-tia e
4F	-ci-	.	.	2d	li-	2f	Fan-	2d	li-
4D	-tia e	4E	.	.	.	.	.	.	.
4.C	li-	2F	-te,	2G	-te,	4.e	-no a-	4e	-te,
.	.	.	.	.	.	.	.	4cc	Fan-
8D	.	.	.	.	.	8f	-mi-	.	.
=41	=41	=41	=41	=41	=41	=41	=41	=41	=41
2E	.	2r	.	2r	.	2g	-ci-	4b	-no a-
.	.	.	.	.	.	.	.	4cc	-mi-
4D	-te,>	2BB-y	Fan-	2d	Fan-	2a	-tia	1dd	-ci-
4D	Fan-	.	.	.	.	.	.	.	.
4GG	-no a-	4C	-no a-	4B-X	-no a-	2r	.	.	.
4FF#X	-mi-	4D	-mi-	4A	-mi-	.	.	.	.
2GG	-ci-	4E-X	-ci-	[2G	-ci-	[2d	e	2b-X	-tia e
.	.	4C	-tia e	.	.	.	.	.	.
=42	=42	=42	=42	=42	=42	=42	=42	=42	=42
1D	-tia e	0D	li-	2G]	.	2d]	.	0a	li-
.	.	.	.	2F	-tia e	1d	li-	.	.
1AA	li-	.	.	1E	li-	.	.	.	.
.	.	.	.	.	.	2c#X	.	.	.
=43	=43	=43	=43	=43	=43	=43	=43	=43	=43
0Dl	-te.	0Dl	-te.	0Dl	-te.	0dl	-te.	0f#Xl	-te.
==	==	==	==	==	==	==	==	==	==
*-	*-	*-	*-	*-	*-	*-	*-	*-	*-
!!!system-decoration: [(s1,s2,s3,s4,s5)]
!!!RDF**kern: i = editorial accidental
!!!RDF**kern: l = terminal long
!!!ENC: Emiliano Ricciardi
!!!END: 2018
!!!EED: Ricciardi, Emiliano
!!!EEV: 2018/10/28
!!!YEC: Copyright 2018 Emiliano Ricciardi, All Rights Reserved
!!!ONB: Translated from MusicXML on 2018/10/28 and edited by Craig Stuart Sapp
